X: 72
T:Polka
M:2/4
L:1/8
Q:220
O:France
K:C
GA/2B/2 cd|ef g>f|eg fe|1df ec:|2de c2|
|:eg eg|fe d2|df df|ed c2|ce ce|dc Bc|de fg|1a2g2:|2ag c2||
W:
W: From "Falaleiro" http://home.t-online.de/home/pheld/homepage.htm

